static/assets/images/icons/btr-supply.svg

<svg width="256" height="256" viewBox="0 0 256 256" fill="none" xmlns="http://www.w3.org/2000/svg">
<path d="M19.4491 149.981L32.7964 70H67.6563C73.7804 70 78.7922 70.8201 82.6917 72.4603C86.6173 74.1006 89.3914 76.4178 91.0141 79.4118C92.6628 82.4059 93.147 85.9338 92.4666 89.9953C91.9432 92.9113 90.8178 95.58 89.0905 98.0013C87.3894 100.397 85.2303 102.427 82.6131 104.094C80.0222 105.734 77.1303 106.866 73.9374 107.491L73.7804 108.272C77.235 108.376 80.2446 109.236 82.8094 110.85C85.3742 112.438 87.2585 114.651 88.4624 117.489C89.6663 120.301 89.9541 123.581 89.326 127.33C88.5932 131.704 86.8005 135.597 83.9479 139.007C81.0952 142.418 77.392 145.1 72.8382 147.052C68.2844 149.005 63.1026 149.981 57.2926 149.981H19.4491ZM44.2593 132.642H54.4661C58.0777 132.642 60.9173 131.952 62.9848 130.572C65.0785 129.192 66.3216 127.174 66.7142 124.518C67.0282 122.644 66.8712 121.056 66.2431 119.754C65.615 118.452 64.555 117.463 63.0633 116.786C61.5715 116.109 59.7003 115.771 57.4496 115.771H46.9288L44.2593 132.642ZM49.2842 102.336H58.2347C60.1191 102.336 61.8463 102.037 63.4166 101.438C64.9869 100.839 66.2823 99.9669 67.303 98.8214C68.3237 97.6758 68.9649 96.2959 69.2266 94.6817C69.6192 92.1823 69.0172 90.2817 67.4208 88.9799C65.8505 87.6781 63.7307 87.0273 61.0612 87.0273H51.7966L49.2842 102.336Z" fill="black"/>
<path d="M101.456 87.4959L104.44 70H174.317L171.333 87.4959H147.151L136.787 149.981H115.275L125.638 87.4959H101.456Z" fill="black"/>
<path fill-rule="evenodd" clip-rule="evenodd" d="M169.184 149.981L182.531 70H217.234C223.201 70 228.239 71.0805 232.348 73.2414C236.457 75.4024 239.414 78.5136 241.22 82.5752C243.026 86.6367 243.458 91.5054 242.515 97.1811C241.573 102.909 239.493 107.739 236.274 111.67C233.293 115.316 229.547 118.145 225.038 120.158L236.391 149.981H212.68L202.969 123.581H195.445L191.011 149.981H169.184ZM212.68 105.773C210.744 106.398 208.493 106.71 205.928 106.71H198.278L201.531 87.3397H209.226C211.738 87.3397 213.845 87.6912 215.546 88.3941C217.247 89.071 218.464 90.1385 219.197 91.5965C219.93 93.0285 220.113 94.89 219.747 97.1811C219.38 99.4723 218.595 101.321 217.391 102.727C216.187 104.107 214.617 105.122 212.68 105.773Z" fill="black"/>
<path d="M39.4274 169.511C39.5359 167.985 39.1292 166.803 38.2074 165.966C37.2992 165.129 35.8623 164.711 33.8967 164.711C32.5954 164.711 31.4838 164.879 30.562 165.217C29.6403 165.541 28.915 166 28.3864 166.594C27.8577 167.175 27.5256 167.85 27.39 168.62C27.268 169.227 27.3019 169.767 27.4917 170.24C27.6815 170.712 28.0136 171.131 28.488 171.496C28.976 171.86 29.5793 172.177 30.2977 172.447C31.0297 172.717 31.8498 172.954 32.7581 173.156L36.1741 173.966C38.1532 174.412 39.868 175.006 41.3184 175.749C42.7825 176.478 43.9686 177.362 44.8768 178.402C45.785 179.428 46.4086 180.61 46.7475 181.946C47.0864 183.283 47.1135 184.782 46.8288 186.443C46.395 189.062 45.358 191.31 43.7178 193.187C42.0911 195.064 39.9629 196.502 37.3331 197.501C34.7168 198.5 31.6736 199 28.2034 199C24.7331 199 21.7848 198.48 19.3583 197.44C16.9454 196.387 15.1967 194.801 14.1123 192.681C13.0278 190.561 12.7364 187.887 13.2379 184.66H22.8557C22.7065 185.997 22.876 187.111 23.364 188.002C23.8655 188.893 24.6382 189.569 25.682 190.028C26.7258 190.487 27.9865 190.716 29.464 190.716C30.8196 190.716 32.0057 190.534 33.0224 190.169C34.0526 189.805 34.8727 189.298 35.4827 188.65C36.1063 188.002 36.4859 187.26 36.6214 186.422C36.757 185.653 36.6282 184.984 36.2351 184.417C35.8555 183.85 35.2048 183.357 34.2831 182.939C33.3748 182.52 32.1819 182.142 30.7044 181.805L26.536 180.792C23.0929 179.955 20.4834 178.618 18.7076 176.782C16.9454 174.945 16.3218 172.454 16.8369 169.308C17.2707 166.729 18.3416 164.474 20.0496 162.543C21.7712 160.613 23.9469 159.114 26.5767 158.047C29.22 156.967 32.1277 156.427 35.2997 156.427C38.526 156.427 41.2371 156.974 43.4331 158.067C45.6427 159.148 47.2355 160.673 48.2115 162.645C49.2011 164.603 49.4857 166.891 49.0655 169.511H39.4274Z" fill="black"/>
<path d="M82.0261 156.994H92.0708L87.6178 183.749C87.1026 186.841 85.9165 189.535 84.0594 191.83C82.2158 194.112 79.8639 195.881 77.0037 197.137C74.1434 198.379 70.9579 199 67.447 199C63.9225 199 60.947 198.379 58.5206 197.137C56.0941 195.881 54.3386 194.112 53.2542 191.83C52.1697 189.535 51.8783 186.841 52.3799 183.749L56.8329 156.994H66.898L62.5669 182.878C62.3365 184.309 62.4449 185.585 62.8923 186.706C63.3531 187.813 64.0987 188.691 65.1289 189.339C66.1592 189.974 67.4198 190.291 68.911 190.291C70.4156 190.291 71.7915 189.974 73.0387 189.339C74.2858 188.691 75.316 187.813 76.1293 186.706C76.9427 185.585 77.4646 184.309 77.695 182.878L82.0261 156.994Z" fill="black"/>
<path d="M91.4659 198.473L98.3792 156.994H115.581C118.699 156.994 121.295 157.595 123.369 158.796C125.443 159.998 126.914 161.679 127.781 163.84C128.649 166 128.846 168.505 128.371 171.354C127.91 174.23 126.873 176.734 125.26 178.868C123.661 181.001 121.6 182.655 119.079 183.83C116.557 185.005 113.69 185.592 110.478 185.592H99.8839L101.206 177.693H109.949C111.481 177.693 112.802 177.43 113.914 176.903C115.039 176.377 115.941 175.641 116.618 174.696C117.296 173.75 117.743 172.636 117.96 171.354C118.164 170.071 118.082 168.964 117.716 168.032C117.35 167.087 116.693 166.358 115.744 165.845C114.809 165.332 113.589 165.075 112.084 165.075H107.123L101.531 198.473H91.4659Z" fill="black"/>
<path d="M128.763 198.473L135.676 156.994H152.878C155.996 156.994 158.592 157.595 160.666 158.796C162.74 159.998 164.211 161.679 165.078 163.84C165.946 166 166.142 168.505 165.668 171.354C165.207 174.23 164.17 176.734 162.557 178.868C160.957 181.001 158.897 182.655 156.375 183.83C153.854 185.005 150.987 185.592 147.774 185.592H137.181L138.502 177.693H147.246C148.777 177.693 150.099 177.43 151.211 176.903C152.336 176.377 153.237 175.641 153.915 174.696C154.593 173.75 155.04 172.636 155.257 171.354C155.46 170.071 155.379 168.964 155.013 168.032C154.647 167.087 153.99 166.358 153.041 165.845C152.105 165.332 150.885 165.075 149.381 165.075H144.419L138.828 198.473H128.763Z" fill="black"/>
<path d="M166.059 198.473L172.973 156.994H183.038L177.507 190.331H194.831L193.448 198.473H166.059Z" fill="black"/>
<path d="M197.068 156.994H208.312L214.209 174.351H214.636L226.287 156.994H237.531L217.706 184.62L215.388 198.473H205.384L207.722 184.62L197.068 156.994Z" fill="black"/>
</svg>

<svg xmlns="http://www.w3.org/2000/svg" fill="none" viewBox="0 0 256 256"><path fill="#000" d="M19.45 149.981 32.795 70h34.86q9.186 0 15.036 2.46 5.888 2.46 8.322 6.952 2.473 4.491 1.453 10.583a19.6 19.6 0 0 1-3.376 8.006q-2.552 3.593-6.478 6.093-3.886 2.46-8.676 3.397l-.157.781q5.182.157 9.03 2.578 3.846 2.382 5.652 6.639 1.806 4.218.864 9.841-1.099 6.562-5.378 11.677-4.28 5.117-11.11 8.045-6.83 2.93-15.545 2.929zm24.81-17.339h10.206q5.418 0 8.519-2.07 3.14-2.07 3.73-6.054.47-2.811-.472-4.764t-3.18-2.968-5.613-1.015H46.929zm5.024-30.306h8.95q2.827 0 5.183-.898t3.886-2.617q1.53-1.718 1.924-4.14.588-3.749-1.806-5.701-2.355-1.953-6.36-1.953h-9.264zm52.172-14.84L104.44 70h69.877l-2.984 17.496h-24.182l-10.364 62.485h-21.512l10.363-62.485z"/><path fill="#000" fill-rule="evenodd" d="M169.184 149.981 182.531 70h34.703q8.95 0 15.114 3.241 6.163 3.242 8.872 9.334 2.71 6.093 1.295 14.606-1.413 8.592-6.241 14.489-4.472 5.469-11.236 8.488l11.353 29.823H212.68l-9.711-26.4h-7.524l-4.434 26.4zm43.496-44.208q-2.904.937-6.752.937h-7.65l3.253-19.37h7.695q3.768 0 6.32 1.054 2.552 1.015 3.651 3.203 1.1 2.147.55 5.584t-2.356 5.546q-1.806 2.07-4.711 3.046" clip-rule="evenodd"/><path fill="#000" d="M39.427 169.511q.163-2.29-1.22-3.545-1.362-1.255-4.31-1.255-1.953 0-3.335.506-1.383.486-2.176 1.377a4 4 0 0 0-.996 2.026q-.183.91.102 1.62.285.708.996 1.256.732.546 1.81.951 1.098.406 2.46.709l3.416.81q2.97.669 5.144 1.783 2.197 1.093 3.559 2.653a8.4 8.4 0 0 1 1.87 3.544q.51 2.005.082 4.497-.651 3.929-3.111 6.744-2.44 2.816-6.385 4.314Q33.41 199 28.203 199q-5.205 0-8.845-1.56-3.619-1.58-5.246-4.759-1.626-3.18-.874-8.021h9.618q-.224 2.006.508 3.342.752 1.337 2.318 2.026t3.782.688q2.034 0 3.558-.547 1.545-.547 2.46-1.519.936-.971 1.14-2.228.203-1.154-.387-2.005-.57-.85-1.952-1.478-1.362-.629-3.579-1.134l-4.168-1.013q-5.165-1.256-7.828-4.01-2.644-2.755-1.871-7.474.651-3.869 3.213-6.765 2.582-2.895 6.527-4.496 3.964-1.62 8.723-1.62 4.839 0 8.133 1.64 3.315 1.62 4.779 4.578 1.485 2.936.853 6.866zm42.599-12.517h10.045l-4.453 26.755q-.772 4.638-3.559 8.081-2.765 3.423-7.055 5.307Q72.714 199 67.447 199q-5.287 0-8.926-1.863-3.64-1.884-5.267-5.307-1.626-3.443-.874-8.081l4.453-26.755h10.065l-4.331 25.884q-.345 2.147.325 3.828a5.58 5.58 0 0 0 2.237 2.633q1.545.952 3.782.952 2.257 0 4.128-.952a8.8 8.8 0 0 0 3.09-2.633q1.221-1.681 1.566-3.828zm9.44 41.479 6.913-41.479h17.202q4.677 0 7.788 1.802t4.412 5.044q1.302 3.24.59 7.514-.691 4.313-3.111 7.514-2.399 3.2-6.181 4.962t-8.601 1.762H99.884l1.322-7.899h8.743q2.297 0 3.965-.79 1.688-.79 2.704-2.207 1.017-1.419 1.342-3.342.305-1.924-.244-3.322-.549-1.417-1.972-2.187-1.403-.77-3.66-.77h-4.961l-5.592 33.398zm37.297 0 6.913-41.479h17.202q4.677 0 7.788 1.802t4.412 5.044q1.302 3.24.59 7.514-.692 4.313-3.111 7.514-2.4 3.2-6.182 4.962-3.781 1.762-8.601 1.762h-10.593l1.321-7.899h8.744q2.297 0 3.965-.79 1.687-.79 2.704-2.207 1.017-1.419 1.342-3.342.305-1.924-.244-3.322-.549-1.417-1.972-2.187-1.404-.77-3.66-.77h-4.962l-5.591 33.398zm37.296 0 6.914-41.479h10.065l-5.531 33.337h17.324l-1.383 8.142zm31.009-41.479h11.244l5.897 17.357h.427l11.651-17.357h11.244l-19.825 27.626-2.318 13.853h-10.004l2.338-13.853z"/></svg>
